X: 21201
P: German air arranged as a solo or duet.
M: C
L: 1/4
K: G
V: 1 staves=2
d |\
b>a ge | d2 BG | AB cd | B2 zd |\
b>a ge | d2 BG | A(B/c/) BA | G2 zB |\
V: 2
z |\
d>c Bc | B2 GG | FG AF | G2 zB |\
d>c Bc | B2 GG | FG DF | G2 zG |


